X: 1
T: Catharsis
M: C|
L: 1/8
C: Amy Cann
S: Natalie MacMaster ("No Boundaries" CD)
S: Nigel Gatherer gatherer@argonet.co.uk tradtunes 2004-9-14
Z: Transcribed by Tony Ludiker
Z: Posted by Tony Ludiker 12/97
K: Gm
[| "Gm"DFGF  DFGF |     DFGA "Dm"BGAF | "Gm"DFGF     DFGF |     DEDC "D7"B,CA,B, |
|  "Gm"G,FGF DFGF | "Gm"DFGA     B3c  | "Bb"dcBA "Cm"BAGF | "Dm"DGGF "Gm"GABc |]
[| "Gm"dGGc  GGBG |     GAGG     AGAc |  "F"dFFc     FFBF |     FAFF     AGAc |
|  "Eb"dEEc  EEBE |     EAEE     AGAc | "Bb"dcBA "Cm"BAGF | "Dm"DGGF "Gm"G4   |]
